svg/system/settings_5_line.svg

<?xml version="1.0" encoding="UTF-8"?>
<svg width="24px" height="24px" viewBox="0 0 24 24" version="1.1" xmlns="http://www.w3.org/2000/svg" xmlns:xlink="http://www.w3.org/1999/xlink">
    <title>settings_5_line</title>
    <g id="页面-1" stroke="none" stroke-width="1" fill="none" fill-rule="evenodd">
        <g id="System" transform="translate(-768.000000, -192.000000)">
            <g id="settings_5_line" transform="translate(768.000000, 192.000000)">
                 <path d="M24,0 L24,24 L0,24 L0,0 L24,0 Z M12.5934901,23.257841 L12.5819402,23.2595131 L12.5108777,23.2950439 L12.4918791,23.2987469 L12.4918791,23.2987469 L12.4767152,23.2950439 L12.4056548,23.2595131 C12.3958229,23.2563662 12.3870493,23.2590235 12.3821421,23.2649074 L12.3780323,23.275831 L12.360941,23.7031097 L12.3658947,23.7234994 L12.3769048,23.7357139 L12.4804777,23.8096931 L12.4953491,23.8136134 L12.4953491,23.8136134 L12.5071152,23.8096931 L12.6106902,23.7357139 L12.6232938,23.7196733 L12.6232938,23.7196733 L12.6266527,23.7031097 L12.609561,23.275831 C12.6075724,23.2657013 12.6010112,23.2592993 12.5934901,23.257841 L12.5934901,23.257841 Z M12.8583906,23.1452862 L12.8445485,23.1473072 L12.6598443,23.2396597 L12.6498822,23.2499052 L12.6498822,23.2499052 L12.6471943,23.2611114 L12.6650943,23.6906389 L12.6699349,23.7034178 L12.6699349,23.7034178 L12.678386,23.7104931 L12.8793402,23.8032389 C12.8914285,23.8068999 12.9022333,23.8029875 12.9078286,23.7952264 L12.9118235,23.7811639 L12.8776777,23.1665331 C12.8752882,23.1545897 12.8674102,23.1470016 12.8583906,23.1452862 L12.8583906,23.1452862 Z M12.1430473,23.1473072 C12.1332178,23.1423925 12.1221763,23.1452606 12.1156365,23.1525954 L12.1099173,23.1665331 L12.0757714,23.7811639 C12.0751323,23.7926639 12.0828099,23.8018602 12.0926481,23.8045676 L12.108256,23.8032389 L12.3092106,23.7104931 L12.3186497,23.7024347 L12.3186497,23.7024347 L12.3225043,23.6906389 L12.340401,23.2611114 L12.337245,23.2485176 L12.337245,23.2485176 L12.3277531,23.2396597 L12.1430473,23.1473072 Z" id="MingCute" fill-rule="nonzero"></path>
                <path d="M14.4095,2.29252 C15.3922,2.53569 16.3173,2.92399 17.1607,3.43303 C17.5111,3.64448 17.6972,4.04803 17.6307,4.45178 C17.5172,5.14078 17.6885,5.66772 18.0105,5.98974 C18.3325,6.31176 18.8595,6.48308 19.5484,6.36954 C19.9522,6.30301 20.3558,6.48917 20.5672,6.83951 C21.0762,7.68291 21.4645,8.60804 21.7077,9.59069 C21.806,9.98806 21.6522,10.4052 21.3195,10.6437 C20.7517,11.0507 20.5001,11.5446 20.5001,12.0001 C20.5001,12.4556 20.7517,12.9495 21.3195,13.3565 C21.6522,13.5949 21.806,14.0121 21.7077,14.4095 C21.4645,15.3922 21.0762,16.3173 20.5671,17.1608 C20.3557,17.5111 19.9522,17.6973 19.5484,17.6307 C18.8594,17.5172 18.3325,17.6885 18.0105,18.0105 C17.6885,18.3325 17.5172,18.8595 17.6307,19.5484 C17.6972,19.9522 17.5111,20.3557 17.1607,20.5672 C16.3173,21.0762 15.3922,21.4645 14.4095,21.7077 C14.0121,21.806 13.595,21.6522 13.3565,21.3195 C12.9495,20.7517 12.4556,20.5001 12.0001,20.5001 C11.5446,20.5001 11.0507,20.7517 10.6437,21.3195 C10.4052,21.6522 9.98807,21.806 9.5907,21.7077 C8.60802,21.4645 7.68287,21.0762 6.83946,20.5672 C6.48913,20.3557 6.30296,19.9522 6.36949,19.5484 C6.48302,18.8595 6.3117,18.3325 5.98969,18.0105 C5.66767,17.6885 5.14075,17.5172 4.45178,17.6307 C4.04803,17.6973 3.64449,17.5111 3.43305,17.1608 C2.924,16.3173 2.53569,15.3922 2.29252,14.4095 C2.19418,14.0121 2.34796,13.5949 2.68069,13.3565 C3.24849,12.9495 3.5001,12.4556 3.5001,12.0001 C3.5001,11.5446 3.24849,11.0507 2.68068,10.6437 C2.34796,10.4052 2.19418,9.98806 2.29252,9.5907 C2.53568,8.60804 2.92397,7.68291 3.43299,6.83952 C3.64443,6.48918 4.04799,6.30301 4.45175,6.36955 C5.14073,6.48309 5.66767,6.31177 5.98969,5.98975 C6.31172,5.66772 6.48304,5.14078 6.36949,4.45179 C6.30295,4.04803 6.48912,3.64447 6.83945,3.43303 C7.68287,2.92399 8.60802,2.53569 9.5907,2.29252 C9.98806,2.19418 10.4052,2.34797 10.6437,2.68069 C11.0507,3.24849 11.5446,3.50009 12.0001,3.50009 C12.4556,3.50009 12.9495,3.24849 13.3565,2.68069 C13.595,2.34797 14.0121,2.19418 14.4095,2.29252 Z M14.5119,4.40209 C13.8552,5.06102 12.9921,5.50009 12.0001,5.50009 C11.0081,5.50009 10.1449,5.06102 9.48825,4.40209 C9.11378,4.52581 8.75148,4.6765 8.40364,4.85189 C8.40512,5.78202 8.10521,6.70266 7.40391,7.40396 C6.70261,8.10525 5.78198,8.40517 4.85187,8.4037 C4.67649,8.75152 4.52581,9.1138 4.40209,9.48825 C5.06102,10.1449 5.5001,11.0081 5.5001,12.0001 C5.5001,12.9921 5.06102,13.8552 4.40209,14.5119 C4.52582,14.8864 4.67651,15.2487 4.85191,15.5966 C5.78201,15.5951 6.70262,15.895 7.4039,16.5963 C8.10518,17.2976 8.40509,18.2182 8.40364,19.1483 C8.75148,19.3237 9.11378,19.4744 9.48826,19.5981 C10.1449,18.9392 11.0081,18.5001 12.0001,18.5001 C12.9921,18.5001 13.8552,18.9392 14.5119,19.5981 C14.8864,19.4744 15.2487,19.3237 15.5966,19.1483 C15.5951,18.2182 15.895,17.2976 16.5963,16.5963 C17.2976,15.895 18.2182,15.5951 19.1483,15.5966 C19.3237,15.2487 19.4744,14.8864 19.5981,14.5119 C18.9392,13.8552 18.5001,12.9921 18.5001,12.0001 C18.5001,11.0081 18.9392,10.1449 19.5981,9.48825 C19.4744,9.11379 19.3237,8.75152 19.1483,8.40369 C18.2182,8.40516 17.2976,8.10525 16.5963,7.40395 C15.895,6.70265 15.5951,5.78201 15.5966,4.8519 C15.2487,4.6765 14.8864,4.52581 14.5119,4.40209 Z M12.0001,8.00009 C14.2092,8.00009 16.0001,9.79095 16.0001,12.00009 C16.0001,14.2092 14.2092,16.00009 12.0001,16.00009 C9.79096,16.00009 8.0001,14.2092 8.0001,12.00009 C8.0001,9.79095 9.79096,8.00009 12.0001,8.00009 Z M12.0001,10.0001 C10.8955,10.0001 10.0001,10.8955 10.0001,12.0001 C10.0001,13.1047 10.8955,14.0001 12.0001,14.0001 C13.1047,14.0001 14.0001,13.1047 14.0001,12.0001 C14.0001,10.8955 13.1047,10.0001 12.0001,10.0001 Z" id="形状" fill="#09244B"></path>
            </g>
        </g>
    </g>
</svg>

<svg xmlns="http://www.w3.org/2000/svg" width="24" height="24"><g fill="none" fill-rule="evenodd"><path d="M24 0v24H0V0h24ZM12.593 23.258l-.011.002-.071.035-.02.004-.014-.004-.071-.035c-.01-.004-.019-.001-.024.005l-.004.01-.017.428.005.02.01.013.104.074.015.004.012-.004.104-.074.012-.016.004-.017-.017-.427c-.002-.01-.009-.017-.017-.018Zm.265-.113-.013.002-.185.093-.01.01-.003.011.018.43.005.012.008.007.201.093c.012.004.023 0 .029-.008l.004-.014-.034-.614c-.003-.012-.01-.02-.02-.022Zm-.715.002a.023.023 0 0 0-.027.006l-.006.014-.034.614c0 .012.007.02.017.024l.015-.002.201-.093.01-.008.004-.011.017-.43-.003-.012-.01-.01-.184-.092Z"/><path fill="#09244B" d="M14.41 2.293a9.946 9.946 0 0 1 2.75 1.14 1 1 0 0 1 .47 1.019c-.113.689.059 1.216.38 1.538.322.322.85.493 1.538.38a1 1 0 0 1 1.02.47 9.948 9.948 0 0 1 1.14 2.75 1 1 0 0 1-.388 1.054c-.568.407-.82.9-.82 1.356 0 .456.252.95.82 1.357a1 1 0 0 1 .388 1.053 9.947 9.947 0 0 1-1.14 2.75 1 1 0 0 1-1.02.47c-.689-.113-1.215.059-1.537.38-.322.322-.494.85-.38 1.538a1 1 0 0 1-.47 1.02 9.948 9.948 0 0 1-2.752 1.14 1 1 0 0 1-1.053-.388c-.406-.568-.9-.82-1.356-.82-.455 0-.95.252-1.356.82a1 1 0 0 1-1.053.388 9.948 9.948 0 0 1-2.752-1.14 1 1 0 0 1-.47-1.02c.114-.688-.057-1.215-.38-1.537-.321-.322-.848-.494-1.537-.38a1 1 0 0 1-1.019-.47 9.947 9.947 0 0 1-1.14-2.752 1 1 0 0 1 .388-1.053c.567-.406.82-.9.82-1.356 0-.455-.253-.95-.82-1.356a1 1 0 0 1-.388-1.053 9.946 9.946 0 0 1 1.14-2.751 1 1 0 0 1 1.019-.47c.689.113 1.216-.058 1.538-.38.322-.322.493-.85.38-1.538a1 1 0 0 1 .47-1.019 9.947 9.947 0 0 1 2.75-1.14 1 1 0 0 1 1.054.388c.407.567.9.82 1.356.82.456 0 .95-.253 1.357-.82a1 1 0 0 1 1.053-.388Zm.102 2.11C13.855 5.06 12.992 5.5 12 5.5s-1.855-.439-2.512-1.098a7.944 7.944 0 0 0-1.084.45c.001.93-.299 1.85-1 2.552-.701.701-1.622 1.001-2.552 1-.176.348-.326.71-.45 1.084.659.657 1.098 1.52 1.098 2.512s-.439 1.855-1.098 2.512c.124.374.275.737.45 1.085.93-.002 1.85.298 2.552 1 .701.7 1.001 1.621 1 2.551.347.176.71.326 1.084.45.657-.659 1.52-1.098 2.512-1.098s1.855.44 2.512 1.098a7.943 7.943 0 0 0 1.085-.45c-.002-.93.298-1.85 1-2.552.7-.701 1.621-1 2.551-1 .176-.347.326-.71.45-1.084-.659-.657-1.098-1.52-1.098-2.512s.44-1.855 1.098-2.512a7.94 7.94 0 0 0-.45-1.084c-.93.001-1.85-.299-2.552-1-.701-.701-1-1.622-1-2.552a7.945 7.945 0 0 0-1.084-.45ZM12 8a4 4 0 1 1 0 8 4 4 0 0 1 0-8Zm0 2a2 2 0 1 0 0 4 2 2 0 0 0 0-4Z"/></g></svg>
